packages/sources/icons/src/vitamix/drive-fill.svg

<svg width="16" height="16" viewBox="0 0 16 16" fill="none" xmlns="http://www.w3.org/2000/svg">
<path fill-rule="evenodd" clip-rule="evenodd" d="M5.67864 2.09665L9.63931 8.95998H9.63997H14.2813L10.3213 2.09665H5.67864ZM5.29333 2.76399L7.61466 6.78399L3.65466 13.646L1.33333 9.62666L5.29333 2.76399ZM6.74407 9.62665H14.6667L12.3454 13.646H4.42341L6.74407 9.62665Z" fill="#001018"/>
</svg>

<svg width="16" height="16" fill="none" xmlns="http://www.w3.org/2000/svg"><path fill-rule="evenodd" clip-rule="evenodd" d="m5.679 2.097 3.96 6.863h4.642l-3.96-6.863H5.68zm-.386.667 2.322 4.02-3.96 6.862-2.322-4.02 3.96-6.862zm1.451 6.863h7.923l-2.322 4.019H4.423l2.321-4.02z" fill="#001018"/></svg>
